X: 42246
T: We'll All Lie Together
R: slip jig
M: 9/8
K: Dmixolydian
|:D2 F A2 F G2 E|D2 D A2 F GFE|D2 F A2 F G2 c|1 EGE c2 E GFE:|2 E2 E c2 E GAB||
|:D2 d A2 B c2 A|D2 d A2 F GFE|D2 d A2 B c2 G|1 E^DE c2 E GAB:|2 E/F/GE cGE c2 E||

